images/instagram.svg

<svg xmlns="http://www.w3.org/2000/svg" width="144.1" height="113.2" viewBox="0 0 144.1 113.2"><title>instagram</title><g fill="#fff"><path d="M97.4 36.9a5.8 5.8 0 0 1-5.8-5.9 5.9 5.9 0 0 1 11.8.1 6 6 0 0 1-6 5.8zM90.8 8.5h-38.7a29 29 0 0 0-29.1 29v38.8a29 29 0 0 0 29.1 29h38.7a29 29 0 0 0 29-29v-38.8a28.9 28.9 0 0 0-29-29zm21 68a20.7 20.7 0 0 1-20.7 20.7h-39.3a20.7 20.7 0 0 1-20.7-20.7v-39.3a20.7 20.7 0 0 1 20.7-20.7h39.3a20.7 20.7 0 0 1 20.7 20.7zM71.6 32a24.9 24.9 0 1 0 24.9 24.9 24.9 24.9 0 0 0-24.9-24.9zm0 41a16.1 16.1 0 1 1 16-16.1 16 16 0 0 1-16 16.1z"/></g></svg>

<svg xmlns="http://www.w3.org/2000/svg" width="144.1" height="113.2" viewBox="0 0 144.1 113.2"><title>instagram</title><g id="instagram"><path d="M97.4,36.9A5.8,5.8,0,0,1,91.6,31a5.9,5.9,0,0,1,11.8.1A6,6,0,0,1,97.4,36.9Z" fill="#fff"/><path d="M90.8,8.5H52.1A29,29,0,0,0,23,37.5V76.3a29,29,0,0,0,29.1,29H90.8a29,29,0,0,0,29-29V37.5A28.9,28.9,0,0,0,90.8,8.5Zm21,68A20.7,20.7,0,0,1,91.1,97.2H51.8A20.7,20.7,0,0,1,31.1,76.5V37.2A20.7,20.7,0,0,1,51.8,16.5H91.1a20.7,20.7,0,0,1,20.7,20.7Z" fill="#fff"/><path d="M71.6,32A24.9,24.9,0,1,0,96.5,56.9,24.9,24.9,0,0,0,71.6,32Zm0,41a16.1,16.1,0,1,1,16-16.1A16,16,0,0,1,71.6,73Z" fill="#fff"/></g></svg>
